X: 26123
T: McGoldrick's
R: reel
M: 4/4
K: Dmajor
|:d2Ad cdAd|(3Bcd ef gefe|d2Ad (3Bcd AF|GE E2 GABc|
d2Ad cdAd|(3Bcd ef g2fg|afge fded|(3Bcd AF GABc:|
|:d2fd Adfd|d2fa gece|d2fd Adfd|ceAc eAce|
d2fd Adfd|(3Bcd ef g2fg|afge fded|(3Bcd AF GABc:|

